X:1
T:Title
L:1/8
M:6/8
K:Bb
V:1 treble nm="Grand Piano"
V:1
 z3[Q:1/4=160] F2 F | B3 F3 | A3- A2 G | F2 G E2 F | D3 F2 F | B3 F3 | A3- A2 G | ^F2 G E2 D | %8
 C3 C2 E | G3 G3- | G2 C- C2 E | G2 G ^F2 G | A6- | A3 d2 c | B3 B3- | B2 A- A2 G | F2 F A2 c | %17
 B6- | B3 B2 A | G3 D3 | G3- G2 A | B2 c A2 B | G3 A2 G | F3 G3 | A3- A2 G | F2 G E2 F | D3 D2 D | %27
 G3 G3- | G2 ^F- F2 G | A2 B c2 d | e6- | e3 d2 c | B3 F3- | F2 A- A2 B | c2 c B2 A | B6- | %36
 B3 z3 |] %37

